pics/icons/22x22/items/alias.svg

<?xml version="1.0" encoding="UTF-8" standalone="no"?>
<!-- Created with Inkscape (http://www.inkscape.org/) -->
<svg
   xmlns:dc="http://purl.org/dc/elements/1.1/"
   xmlns:cc="http://creativecommons.org/ns#"
   xmlns:rdf="http://www.w3.org/1999/02/22-rdf-syntax-ns#"
   xmlns:svg="http://www.w3.org/2000/svg"
   xmlns="http://www.w3.org/2000/svg"
   xmlns:xlink="http://www.w3.org/1999/xlink"
   xmlns:sodipodi="http://sodipodi.sourceforge.net/DTD/sodipodi-0.dtd"
   xmlns:inkscape="http://www.inkscape.org/namespaces/inkscape"
   sodipodi:docname="go-jump.svg"
   sodipodi:docbase="/home/ulisse/icone/tango-ubuntu/arrows/green/22x22"
   inkscape:version="0.46"
   sodipodi:version="0.32"
   id="svg11300"
   height="22"
   width="22"
   inkscape:export-filename="/home/ulisse/icone/tango-ubuntu/arrows/green/22x22/go-jump.png"
   inkscape:export-xdpi="90.000000"
   inkscape:export-ydpi="90.000000"
   version="1.0"
   inkscape:output_extension="org.inkscape.output.svg.inkscape">
  <defs
     id="defs3">
    <inkscape:perspective
       sodipodi:type="inkscape:persp3d"
       inkscape:vp_x="0 : 11 : 1"
       inkscape:vp_y="0 : 1000 : 0"
       inkscape:vp_z="22 : 11 : 1"
       inkscape:persp3d-origin="11 : 7.3333333 : 1"
       id="perspective36" />
    <linearGradient
       id="linearGradient2253">
      <stop
         style="stop-color:#d96400;stop-opacity:1"
         offset="0"
         id="stop2255" />
      <stop
         id="stop2257"
         offset="1"
         style="stop-color:#f57900;stop-opacity:1;" />
    </linearGradient>
    <linearGradient
       id="linearGradient2702">
      <stop
         style="stop-color:#3a7304;stop-opacity:1"
         offset="0"
         id="stop2704" />
      <stop
         style="stop-color:#3a7304;stop-opacity:0"
         offset="1"
         id="stop2706" />
    </linearGradient>
    <linearGradient
       inkscape:collect="always"
       id="linearGradient2187">
      <stop
         style="stop-color:#ffffff;stop-opacity:1;"
         offset="0"
         id="stop2189" />
      <stop
         style="stop-color:#ffffff;stop-opacity:0;"
         offset="1"
         id="stop2191" />
    </linearGradient>
    <linearGradient
       id="linearGradient8662"
       inkscape:collect="always">
      <stop
         id="stop8664"
         offset="0"
         style="stop-color:#000000;stop-opacity:1;" />
      <stop
         id="stop8666"
         offset="1"
         style="stop-color:#000000;stop-opacity:0;" />
    </linearGradient>
    <radialGradient
       gradientUnits="userSpaceOnUse"
       gradientTransform="matrix(1,0,0,0.536723,-1.426376e-14,16.87306)"
       r="15.644737"
       fy="36.421127"
       fx="24.837126"
       cy="36.421127"
       cx="24.837126"
       id="radialGradient8668"
       xlink:href="#linearGradient8662"
       inkscape:collect="always" />
    <linearGradient
       inkscape:collect="always"
       xlink:href="#linearGradient2591"
       id="linearGradient2167"
       x1="17.683062"
       y1="12.80967"
       x2="20.835484"
       y2="18.020084"
       gradientUnits="userSpaceOnUse"
       gradientTransform="matrix(0.552819,0,0,0.645744,-3.547601,-2.398123)"
       spreadMethod="pad" />
    <linearGradient
       inkscape:collect="always"
       xlink:href="#linearGradient2187"
       id="linearGradient2193"
       x1="18.59234"
       y1="15.327405"
       x2="8.8207941"
       y2="19.407677"
       gradientUnits="userSpaceOnUse"
       gradientTransform="matrix(0.552819,0,0,0.645744,-3.547601,-2.398123)" />
    <linearGradient
       inkscape:collect="always"
       xlink:href="#linearGradient2702"
       id="linearGradient2708"
       x1="12.105637"
       y1="24.589863"
       x2="8.3580408"
       y2="28.478729"
       gradientUnits="userSpaceOnUse"
       gradientTransform="matrix(0.471718,0,0,0.551011,-1.342531,-1.611335)" />
    <radialGradient
       gradientUnits="userSpaceOnUse"
       gradientTransform="matrix(0.843022,1.871885e-16,-2.265228e-16,1.020168,4.499298,1.381992)"
       r="16.9562"
       fy="32.797512"
       fx="22.291636"
       cy="32.797512"
       cx="22.291636"
       id="radialGradient2597"
       xlink:href="#linearGradient2591"
       inkscape:collect="always" />
    <radialGradient
       inkscape:collect="always"
       xlink:href="#linearGradient8662"
       id="radialGradient1357"
       cx="24.837126"
       cy="36.421127"
       fx="24.837126"
       fy="36.421127"
       r="15.644737"
       gradientTransform="matrix(1.000000,0.000000,0.000000,0.536723,2.511012e-15,16.87306)"
       gradientUnits="userSpaceOnUse" />
    <radialGradient
       inkscape:collect="always"
       xlink:href="#linearGradient8650"
       id="radialGradient8656"
       cx="19.701141"
       cy="2.8969381"
       fx="19.701141"
       fy="2.8969381"
       r="17.171415"
       gradientTransform="matrix(2.046729,-3.749427e-16,2.853404e-16,1.55761,-19.51799,3.452086)"
       gradientUnits="userSpaceOnUse" />
    <linearGradient
       inkscape:collect="always"
       id="linearGradient8650">
      <stop
         style="stop-color:#ffffff;stop-opacity:1;"
         offset="0"
         id="stop8652" />
      <stop
         style="stop-color:#ffffff;stop-opacity:0;"
         offset="1"
         id="stop8654" />
    </linearGradient>
    <linearGradient
       id="linearGradient2591">
      <stop
         id="stop2593"
         offset="0"
         style="stop-color:#73d216" />
      <stop
         id="stop2595"
         offset="1.0000000"
         style="stop-color:#4e9a06" />
    </linearGradient>
    <radialGradient
       inkscape:collect="always"
       xlink:href="#linearGradient8662"
       id="radialGradient1367"
       gradientUnits="userSpaceOnUse"
       gradientTransform="matrix(1,0,0,0.536723,-1.363146e-14,16.87306)"
       cx="24.837126"
       cy="36.421127"
       fx="24.837126"
       fy="36.421127"
       r="15.644737" />
  </defs>
  <sodipodi:namedview
     inkscape:window-y="30"
     inkscape:window-x="173"
     inkscape:window-height="733"
     inkscape:window-width="872"
     inkscape:showpageshadow="false"
     inkscape:document-units="px"
     inkscape:grid-bbox="true"
     showgrid="true"
     inkscape:current-layer="layer1"
     inkscape:cy="9.7890802"
     inkscape:cx="0.28834832"
     inkscape:zoom="11.313709"
     inkscape:pageshadow="2"
     inkscape:pageopacity="0.0"
     borderopacity="1"
     bordercolor="#666666"
     pagecolor="#ffffff"
     id="base"
     fill="#8ae234"
     stroke="#8ae234"
     inkscape:grid-points="true">
    <inkscape:grid
       id="GridFromPre046Settings"
       type="xygrid"
       originx="0px"
       originy="0px"
       spacingx="0.5px"
       spacingy="0.5px"
       color="#0000ff"
       empcolor="#0000ff"
       opacity="0.2"
       empopacity="0.4"
       empspacing="2" />
  </sodipodi:namedview>
  <metadata
     id="metadata4">
    <rdf:RDF>
      <cc:Work
         rdf:about="">
        <dc:format>image/svg+xml</dc:format>
        <dc:type
           rdf:resource="http://purl.org/dc/dcmitype/StillImage" />
        <dc:creator>
          <cc:Agent>
            <dc:title>Ulisse Perusin</dc:title>
          </cc:Agent>
        </dc:creator>
        <dc:source />
        <cc:license
           rdf:resource="http://creativecommons.org/licenses/publicdomain/" />
        <dc:title>Go Jump</dc:title>
        <dc:subject>
          <rdf:Bag>
            <rdf:li>go</rdf:li>
            <rdf:li>jump</rdf:li>
            <rdf:li>seek</rdf:li>
            <rdf:li>arrow</rdf:li>
            <rdf:li>pointer</rdf:li>
          </rdf:Bag>
        </dc:subject>
        <dc:contributor>
          <cc:Agent>
            <dc:title>Jakub Steiner</dc:title>
          </cc:Agent>
        </dc:contributor>
      </cc:Work>
      <cc:License
         rdf:about="http://creativecommons.org/licenses/publicdomain/">
        <cc:permits
           rdf:resource="http://creativecommons.org/ns#Reproduction" />
        <cc:permits
           rdf:resource="http://creativecommons.org/ns#Distribution" />
        <cc:permits
           rdf:resource="http://creativecommons.org/ns#DerivativeWorks" />
      </cc:License>
    </rdf:RDF>
  </metadata>
  <g
     inkscape:groupmode="layer"
     inkscape:label="Layer 1"
     id="layer1">
    <path
       transform="matrix(0.701846,0,0,-0.476366,-6.412023,35.34978)"
       d="M 40.481863 36.421127 A 15.644737 8.3968935 0 1 1  9.1923885,36.421127 A 15.644737 8.3968935 0 1 1  40.481863 36.421127 z"
       sodipodi:ry="8.3968935"
       sodipodi:rx="15.644737"
       sodipodi:cy="36.421127"
       sodipodi:cx="24.837126"
       id="path8660"
       style="opacity:0.14117647;color:#000000;fill:url(#radialGradient8668);fill-opacity:1;fill-rule:evenodd;stroke:none;stroke-width:1;stroke-linecap:butt;stroke-linejoin:miter;marker:none;marker-start:none;marker-mid:none;marker-end:none;stroke-miterlimit:10;stroke-dasharray:none;stroke-dashoffset:0;stroke-opacity:1;visibility:visible;display:inline;overflow:visible"
       sodipodi:type="arc" />
    <path
       style="opacity:1;color:#000000;fill:url(#linearGradient2167);fill-opacity:1.0;fill-rule:nonzero;stroke:url(#linearGradient2708);stroke-width:1.00000024;stroke-linecap:butt;stroke-linejoin:miter;marker:none;marker-start:none;marker-mid:none;marker-end:none;stroke-miterlimit:4;stroke-dasharray:none;stroke-dashoffset:0;stroke-opacity:1;visibility:visible;display:block;overflow:visible"
       d="M 8,2.5 C 4.5877802,2.7777058 1.1953896,4.5449939 0.5,10.6875 C 2.0239637,4.2360881 9.2134397,3.293622 10.5,10.5 C 10.5,10.5 6,10.5 6,10.5 L 13.5,18.5 L 21,10.5 L 16.5,10.5 C 16.560664,5.3662092 12.47747,2.135598 8,2.5 z "
       id="path1432"
       sodipodi:nodetypes="cccccccc" />
    <path
       sodipodi:nodetypes="ccccccc"
       id="path2177"
       d="M 1.5,7 C 7.1305827,0.70696964 16.163394,3.3239069 15.5,11.5 L 18.5,11.5 L 13.5,17 L 8.5,11.5 C 8.5,11.5 11.5,11.5 11.5,11.5 C 12.066683,7.5889101 6.7617127,0.84895032 1.5,7 z "
       style="opacity:0.41764706;color:#000000;fill:none;fill-opacity:1;fill-rule:nonzero;stroke:url(#linearGradient2193);stroke-width:0.9999997;stroke-linecap:butt;stroke-linejoin:miter;marker:none;marker-start:none;marker-mid:none;marker-end:none;stroke-miterlimit:4;stroke-dasharray:none;stroke-dashoffset:0;stroke-opacity:1;visibility:visible;display:block;overflow:visible"
       inkscape:export-xdpi="90"
       inkscape:export-ydpi="90" />
  </g>
</svg>

<svg xmlns="http://www.w3.org/2000/svg" xmlns:xlink="http://www.w3.org/1999/xlink" height="22" width="22" version="1.0"><defs><linearGradient id="d"><stop offset="0" stop-color="#3a7304"/><stop offset="1" stop-color="#3a7304" stop-opacity="0"/></linearGradient><linearGradient id="c"><stop offset="0" stop-color="#fff"/><stop offset="1" stop-color="#fff" stop-opacity="0"/></linearGradient><linearGradient id="a"><stop offset="0"/><stop offset="1" stop-opacity="0"/></linearGradient><radialGradient gradientUnits="userSpaceOnUse" gradientTransform="matrix(1 0 0 .53672 0 16.873)" r="15.645" fy="36.421" fx="24.837" cy="36.421" cx="24.837" id="f" xlink:href="#a"/><linearGradient xlink:href="#b" id="g" x1="17.683" y1="12.81" x2="20.835" y2="18.02" gradientUnits="userSpaceOnUse" gradientTransform="matrix(.55282 0 0 .64574 -3.548 -2.398)" spreadMethod="pad"/><linearGradient xlink:href="#c" id="i" x1="18.592" y1="15.327" x2="8.821" y2="19.408" gradientUnits="userSpaceOnUse" gradientTransform="matrix(.55282 0 0 .64574 -3.548 -2.398)"/><linearGradient xlink:href="#d" id="h" x1="12.106" y1="24.59" x2="8.358" y2="28.479" gradientUnits="userSpaceOnUse" gradientTransform="matrix(.47172 0 0 .55101 -1.343 -1.611)"/><linearGradient id="e"><stop offset="0" stop-color="#fff"/><stop offset="1" stop-color="#fff" stop-opacity="0"/></linearGradient><linearGradient id="b"><stop offset="0" stop-color="#73d216"/><stop offset="1" stop-color="#4e9a06"/></linearGradient></defs><g color="#000"><path transform="matrix(.70185 0 0 -.47637 -6.412 35.35)" d="M40.482 36.421a15.645 8.397 0 1 1-31.29 0 15.645 8.397 0 1 1 31.29 0z" style="marker:none" opacity=".141" fill="url(#f)" fill-rule="evenodd" overflow="visible"/><path style="marker:none" d="M8 2.5c-3.412.278-6.805 2.045-7.5 8.188 1.524-6.452 8.713-7.394 10-.188H6l7.5 8 7.5-8h-4.5c.06-5.134-4.023-8.364-8.5-8z" fill="url(#g)" stroke="url(#h)" display="block" overflow="visible"/><path d="M1.5 7c5.63-6.293 14.663-3.676 14 4.5h3l-5 5.5-5-5.5h3C12.067 7.589 6.762.849 1.5 7z" style="marker:none" opacity=".418" fill="none" stroke="url(#i)" display="block" overflow="visible"/></g></svg>
